src/images/icon/icon_normal_clusters.svg

<svg height="20" viewBox="0 0 20 20" width="20" xmlns="http://www.w3.org/2000/svg"><g fill="none"><path d="m4.375 9.99481851-2.96410162 1.71132489c-.38675134.223291-.62499999.6359497-.62499999 1.0825317v3.4226498c0 .446582.23824865.8592407.62499999 1.0825317l2.96410162 1.7113249c.38675135.223291.86324865.223291 1.25 0l2.96410162-1.7113249c.38675134-.223291.625-.6359497.625-1.0825317v-3.4226498c0-.446582-.23824866-.8592407-.625-1.0825317l-2.96410162-1.71132489c-.38675135-.22329099-.86324865-.22329099-1.25 0z" fill="#b6c2cd"/><path d="m14.375 9.99481851-2.9641016 1.71132489c-.3867514.223291-.625.6359497-.625 1.0825317v3.4226498c0 .446582.2382486.8592407.625 1.0825317l2.9641016 1.7113249c.3867513.223291.8632487.223291 1.25 0l2.9641016-1.7113249c.3867514-.223291.625-.6359497.625-1.0825317v-3.4226498c0-.446582-.2382486-.8592407-.625-1.0825317l-2.9641016-1.71132489c-.3867513-.22329099-.8632487-.22329099-1.25 0z" fill="#b6c2cd"/><path d="m9.375.99481851-2.96410162 1.71132487c-.38675134.22329099-.625.63594977-.625 1.08253175v3.42264974c0 .44658198.23824866.85924076.625 1.08253175l2.96410162 1.71132488c.38675135.223291.8632487.223291 1.25 0l2.9641016-1.71132488c.3867514-.22329099.625-.63594977.625-1.08253175v-3.42264974c0-.44658198-.2382486-.85924076-.625-1.08253175l-2.9641016-1.71132487c-.3867513-.22329099-.86324865-.22329099-1.25 0z" fill="#36435c"/></g></svg>

<?xml version="1.0" encoding="UTF-8"?>
<svg width="20px" height="20px" viewBox="0 0 20 20" version="1.1" xmlns="http://www.w3.org/2000/svg" xmlns:xlink="http://www.w3.org/1999/xlink">
    
    <g id="Dashboard" stroke="none" stroke-width="1" fill="none" fill-rule="evenodd">
        <g id="00-Menu-交互备份" transform="translate(-75.000000, -122.000000)" fill-rule="nonzero">
            <g id="编组-15" transform="translate(75.000000, 122.000000)">
                <path d="M4.375,9.99481851 L1.41089838,11.7061434 C1.02414704,11.9294344 0.785898385,12.3420931 0.785898385,12.7886751 L0.785898385,16.2113249 C0.785898385,16.6579069 1.02414704,17.0705656 1.41089838,17.2938566 L4.375,19.0051815 C4.76175135,19.2284725 5.23824865,19.2284725 5.625,19.0051815 L8.58910162,17.2938566 C8.97585296,17.0705656 9.21410162,16.6579069 9.21410162,16.2113249 L9.21410162,12.7886751 C9.21410162,12.3420931 8.97585296,11.9294344 8.58910162,11.7061434 L5.625,9.99481851 C5.23824865,9.77152752 4.76175135,9.77152752 4.375,9.99481851 Z" id="路径" fill="#B6C2CD"></path>
                <path d="M14.375,9.99481851 L11.4108984,11.7061434 C11.024147,11.9294344 10.7858984,12.3420931 10.7858984,12.7886751 L10.7858984,16.2113249 C10.7858984,16.6579069 11.024147,17.0705656 11.4108984,17.2938566 L14.375,19.0051815 C14.7617513,19.2284725 15.2382487,19.2284725 15.625,19.0051815 L18.5891016,17.2938566 C18.975853,17.0705656 19.2141016,16.6579069 19.2141016,16.2113249 L19.2141016,12.7886751 C19.2141016,12.3420931 18.975853,11.9294344 18.5891016,11.7061434 L15.625,9.99481851 C15.2382487,9.77152752 14.7617513,9.77152752 14.375,9.99481851 Z" id="路径" fill="#B6C2CD"></path>
                <path d="M9.375,0.994818514 L6.41089838,2.70614338 C6.02414704,2.92943437 5.78589838,3.34209315 5.78589838,3.78867513 L5.78589838,7.21132487 C5.78589838,7.65790685 6.02414704,8.07056563 6.41089838,8.29385662 L9.375,10.0051815 C9.76175135,10.2284725 10.2382487,10.2284725 10.625,10.0051815 L13.5891016,8.29385662 C13.975853,8.07056563 14.2141016,7.65790685 14.2141016,7.21132487 L14.2141016,3.78867513 C14.2141016,3.34209315 13.975853,2.92943437 13.5891016,2.70614338 L10.625,0.994818514 C10.2382487,0.771527521 9.76175135,0.771527521 9.375,0.994818514 Z" id="路径" fill="#36435C"></path>
            </g>
        </g>
    </g>
</svg>
